X:1
T:Partition sans titre
C:Compositeur / Arrangeur
L:1/8
M:4/4
I:linebreak $
K:G
V:1 treble nm="Violon" snm="Vln."
V:1
"G" dBGA BGBc | dBGB"D" AFAB | cAFA dFAB |"C" cAce"D" d2 Bc |"G" dBGA BGBc | dBGB"D" AF A2 | %6
 cAFA dgfe |1 dcBA"G" G2 Bc :|2 dcBA"G" G2 (3DEF |:"G" GABd gagf | edcB"D" A2 A2 | FAAB"C" c2 e2 | %12
"D" dBGA"G" B2 B2 |"G" GABd g2 gf | edcB"D" A2 A2 | FAAB"C" c2 e2 |1"D" dcBA"G" G2 (3DEF :|2 %17
"D" dcBA"G" G2 Bc |] %18
